X:1
T:Title
%%score { ( 1 3 ) | ( 2 4 ) }
L:1/8
Q:1/4=110
M:4/4
K:C
V:1 treble nm="Grand Piano"
V:3 treble 
V:2 bass 
V:4 bass 
V:1
 E3 D C2 [B,D]2 | [CE]2 [DF]2 [EG]2 [Ec]>[Ec] | [DB]4 [Fd]4 | [Ec]6 z2 | E3 D C2 D2 | %5
w: J.~Howard~Entwisle * * *|||||
 E2 [DF]2 [EG]2 [Ec]>[Ec] | B4 [^FA]4 | G6 z2 | d3 d c2 B2 | [Ec]2 [FA]2 [EG]4 | %10
w: |||||
 [CFA]3 [CAc] [CGB]2 [CFA]2 | [CEG]2 [G,CE]2 [G,B,D]4 | [G,CE]3 [G,DF] [EG]2 [Ge]2 | %13
w: |||
 [Gd]2 [Gc]2 [GB]2 A2 | G3 c [DB]2 [Fd]2 |[M:3/4] [Ec]6 |[M:1/4] E>F |[M:4/4] G6 z2 | [EG]6 z2 | %19
w: ||||||
 B6 z2 |[M:3/4] [Ec]6 |[M:1/4] [Ec]>[GB] |[M:4/4] A2 A>A A>[Ac] [GB]>[FA] | z2 C2 C2 [Ge]>[Ge] | %24
w: |||||
 d4 B4 |[M:9/8] c6- c z z |] %26
w: ||
V:2
 [C,G,C]3 [C,F,B,] [C,E,]2 [G,,G,]2 | [C,G,]2 [C,G,]2 [C,C]2 [C,G,]>[C,G,] | [G,,G,]4 [G,,G,]4 | %3
 [C,G,]6 z2 | [C,G,C]3 [F,G,B,] [E,G,]2 [G,B,]2 | [C,G,C]2 [C,G,]2 [C,C]2 [C,G,]>[C,G,] | %6
 [G,D]2 B,2 D,4 | [G,B,]6 z2 | [G,F]3 [G,F][K:bass] [G,E]2 [G,D]2 | [C,G,]2 [C,C]2 [C,C]4 | %10
 F,3 F, F,2 F,2 | C,2 C,2 G,,4 | C,3 C, [C,C]2 [C,C]2 | [D,B,]2 [E,C]2 z2[K:treble] F2 | %14
 [G,CE]3[K:bass] [G,E] [G,,G,]2 [G,,G,]2 |[M:3/4] [C,G,]6 |[M:1/4] C>D |[M:4/4] E6 z2 | %18
 C,2 C,2 C,2[K:treble] E>E | D6 [G,F]2 |[M:3/4][K:bass] [C,G,]2 C,2 C,2 |[M:1/4] [C,G,]>[E,C] | %22
[M:4/4] [F,CF]2 [F,CF]>[F,CF] [F,CF]>[F,C] [F,C]>[F,C] | [C,C]2 C,2 C,2 [C,C]>[C,C] | %24
 [A,F]4 D2 z2 |[M:9/8] .G,3 z3 z3 |] %26
V:3
 x8 | x8 | x8 | x8 | x8 | x8 | z2 G2 D2 C2 | x8 | x8 | x8 | x8 | x8 | x8 | x8 | x8 |[M:3/4] x6 | %16
[M:1/4] x2 |[M:4/4] z2 C>C C2 [CFA]2 | C2 C2 C2 c>c | z2 G,>G, G,2 d2 |[M:3/4] z2 G,2 G,2 | %21
[M:1/4] x2 |[M:4/4] x8 | [EG]6 z2 | z2 D,2 z2 F2 |[M:9/8] E2 F- F E2- E z z |] %26
V:4
 x8 | x8 | x8 | x8 | x8 | x8 | D,4 z4 | x8 | x4[K:bass] x4 | x8 | x8 | x8 | x8 | %13
 z4 [F,C]4[K:treble] | x3[K:bass] x5 |[M:3/4] x6 |[M:1/4] x2 |[M:4/4] z2 C,>C, C,2 C,2 | %18
 x6[K:treble] x2 | x8 |[M:3/4][K:bass] x6 |[M:1/4] x2 |[M:4/4] x8 | x8 | F,2 z2 G,2- [G,,G,]2 | %25
[M:9/8] C,2- [C,A,]- [C,-A,] [C,G,]2- [C,G,] z z |] %26

